public/icons/cold-network.svg

<svg fill="none" height="55" viewBox="0 0 55 55" width="55" xmlns="http://www.w3.org/2000/svg" xmlns:xlink="http://www.w3.org/1999/xlink"><clipPath id="a"><path d="m7 10h37v38h-37z"/></clipPath><path d="m27.2461 54.4414c15.0475 0 27.246-12.1871 27.246-27.2207s-12.1985-27.2207-27.246-27.2207c-15.0476 0-27.2461 12.1871-27.2461 27.2207s12.1985 27.2207 27.2461 27.2207z" fill="#0d52d4"/><g clip-path="url(#a)" fill="#fff"><path d="m40.326 16.9177c-.0015-1.594-.6035-3.1281-1.6846-4.293-1.0811-1.1648-2.5609-1.8737-4.1408-1.9835s-3.1425.3875-4.3724 1.3916c-1.23 1.0042-2.0359 2.4405-2.255 4.0191-.0408.2868-.061.5762-.0603.8658v16.4503c-.6206.6532-1.1345 1.4013-1.5225 2.2164-.2914.6058-.5072 1.2456-.6423 1.9048-.1301.6001-.1955 1.2126-.195 1.8268-.0008 1.6805.4844 3.3249 1.3963 4.7327.9119 1.4077 2.2111 2.5179 3.7391 3.1952 1.0952.489 2.28.7417 3.4781.7417s2.3829-.2527 3.478-.7417c1.5292-.6764 2.8296-1.7863 3.7425-3.1941.913-1.4078 1.399-3.0526 1.3987-4.7338.0062-2.215-.8394-4.3466-2.3598-5.948zm-6.2594 29.267c-1.8077-.0023-3.5407-.7261-4.8189-2.0126-1.2782-1.2866-1.9974-3.0309-1.9996-4.8503 0-.0693 0-.1414 0-.2107.0585-1.7595.7899-3.4283 2.0415-4.658l.0545-.052.2867-.2683v-17.2151c.0295-1.1716.5127-2.2853 1.3464-3.1035.8338-.8182 1.9522-1.2761 3.1166-1.2761 1.1645 0 2.2828.4579 3.1166 1.2761s1.3169 1.9319 1.3464 3.1035v17.2151l.2868.2683c.6617.6363 1.188 1.4014 1.5469 2.2488.3588.8474.5427 1.7594.5405 2.6805-.0023.9041-.1818 1.7989-.5282 2.633-.3464.8342-.853 1.5913-1.4907 2.2281-.6377.6367-1.3939 1.1406-2.2254 1.4826s-1.7219.5155-2.6201.5106z"/><path d="m40.4756 27.3882h2.6236c.238 0 .4663-.0952.6346-.2646s.2629-.3992.2629-.6387c0-.2396-.0946-.4694-.2629-.6388s-.3966-.2646-.6346-.2646h-2.6236c-.238 0-.4663.0952-.6346.2646s-.2629.3992-.2629.6388c0 .2395.0946.4693.2629.6387s.3966.2646.6346.2646z"/><path d="m40.4756 23.3853h2.6236c.238 0 .4663-.0952.6346-.2646s.2629-.3992.2629-.6388c0-.2395-.0946-.4693-.2629-.6387s-.3966-.2646-.6346-.2646h-2.6236c-.238 0-.4663.0952-.6346.2646s-.2629.3992-.2629.6387c0 .2396.0946.4694.2629.6388s.3966.2646.6346.2646z"/><path d="m39.5781 18.4791c.0008.2391.0957.4681.2639.6369s.3961.2636.6336.2636h2.6236c.2375 0 .4654-.0948.6336-.2636s.2631-.3978.2639-.6369c0-.2396-.0946-.4693-.2629-.6387s-.3966-.2646-.6346-.2646h-2.6265c-.2375.0008-.465.0963-.6327.2656s-.2619.3986-.2619.6377z"/><path d="m35.5093 36.1443v-5.2092c0-.3827-.151-.7498-.4199-1.0204s-.6335-.4226-1.0138-.4226c-.3802 0-.7448.152-1.0137.4226s-.4199.6377-.4199 1.0204v5.2121c-.3241.1466-.6247.3412-.8918.5772-.1603.1479-.308.3091-.4415.4819-.4356.5776-.6821 1.2772-.7053 2.0019-.0233.7248.1778 1.4389.5755 2.0436.3976.6046.9721 1.07 1.644 1.3316.672.2616 1.408.3066 2.1065.1287.6984-.1779 1.3246-.5699 1.792-1.1217s.7528-1.2362.8168-1.9585c.064-.7222-.0966-1.4467-.4595-2.073-.363-.6264-.9104-1.1237-1.5665-1.4233z"/><path d="m24.3639 37.2179c.1276-.6292.3198-1.2434.5734-1.8326l-2.4429-2.4762v-5.5411l4.0142 2.3261v-2.5108l-2.9218-1.6941 2.9218-1.697v-2.5137l-4.0142 2.329v-5.5325l4.5045-4.5194c.2023-.2036.316-.4798.316-.7677 0-.288-.1137-.5641-.316-.7677s-.4766-.318-.7627-.318-.5604.1144-.7627.318l-2.9791 2.9957v-3.9308c0-.1425-.0279-.2836-.0821-.4152-.0542-.1317-.1336-.2513-.2337-.3521-.1001-.1007-.219-.1807-.3498-.2352s-.271-.0826-.4126-.0826c-.1415 0-.2817.0281-.4125.0826s-.2497.1345-.3498.2352c-.1001.1008-.1795.2204-.2337.3521-.0542.1316-.0821.2727-.0821.4152v3.9308l-2.9648-2.9957c-.1001-.1008-.2191-.1808-.3499-.2353-.1309-.0546-.2712-.0827-.4128-.0827s-.2819.0281-.4128.0827c-.1308.0545-.2497.1345-.3499.2353s-.1796.2205-.2338.3522-.0821.2729-.0821.4155c0 .1425.0279.2837.0821.4154.0542.1318.1336.2514.2338.3523l4.4902 4.5194v5.5412l-4.7626-2.7677-1.6458-6.1789c-.0761-.2783-.2588-.5147-.5081-.6573-.2492-.1426-.5445-.1798-.821-.1032-.2764.0765-.5113.2605-.653.5113-.1417.2509-.1785.5481-.1025.8264l1.0839 4.0779-3.37202-1.9596c-.12276-.0713-.25825-.1175-.39875-.136-.1405-.0186-.28325-.0091-.42011.0279-.13685.037-.26513.1007-.37751.1876s-.20665.1952-.27744.3187c-.07079.1236-.11671.26-.13514.4014-.01842.1414-.00899.2851.02775.4228.03674.1378.10008.2669.1864.38s.19393.208.31668.2793l3.37194 1.9595-4.06297 1.0765c-.13687.0379-.26499.1026-.37703.1903-.11204.0878-.20582.1968-.27598.3211-.07016.1242-.11532.2611-.13292.4029-.01759.1417-.00726.2856.03039.4234.03766.1378.1019.2667.18907.3795s.19555.2071.31896.2778c.24924.1426.54455.1797.82098.1032l6.1332-1.6537 4.7626 2.7705-4.7655 2.7648-6.1303-1.6537c-.27681-.0765-.57249-.0392-.82199.1037-.24951.1428-.4324.3796-.50845.6583-.07605.2786-.03902.5762.10294.8273s.37723.4352.65403.5118l4.05157 1.0909-3.36054 1.9538c-.24791.1439-.42887.381-.50308.6592s-.03558.5747.10739.8242.37856.4317.65495.5064c.27639.0746.57094.0358.81886-.1081l3.37202-1.9596-1.0839 4.0779c-.0377.1378-.048.2816-.0304.4234s.0628.2787.1329.4029c.0702.1242.164.2333.276.3211.1121.0877.2402.1524.377.1903.1369.0379.2799.0482.4207.0305.1409-.0177.2769-.0631.4003-.1337.1234-.0707.2318-.165.319-.2778s.1514-.2417.1891-.3795l1.6429-6.1761 4.7655-2.7705v5.5238l-4.4902 4.5281c-.1919.2056-.2967.4784-.2922.7605.0045.282.118.5512.3164.7505.1983.1993.466.313.7463.317.2802.004.551-.102.7549-.2955l2.9648-2.9841v3.9192c0 .2878.1136.5638.3158.7673s.4764.3178.7623.3178c.286 0 .5602-.1143.7624-.3178s.3158-.4795.3158-.7673v-3.9135l1.7662 1.7749c.0287-.1847.0631-.3665.1033-.5483z"/></g></svg>

<svg width="55" height="55" viewBox="0 0 55 55" fill="none" xmlns="http://www.w3.org/2000/svg">
<path d="M27.2461 54.4414C42.2936 54.4414 54.4921 42.2543 54.4921 27.2207C54.4921 12.1871 42.2936 0 27.2461 0C12.1985 0 0 12.1871 0 27.2207C0 42.2543 12.1985 54.4414 27.2461 54.4414Z" fill="#0D52D4"/>
<g clip-path="url(#clip0_6612_41204)">
<path d="M40.326 16.9177C40.3245 15.3237 39.7225 13.7896 38.6414 12.6247C37.5603 11.4599 36.0805 10.751 34.5006 10.6412C32.9207 10.5314 31.3581 11.0287 30.1282 12.0328C28.8982 13.037 28.0923 14.4733 27.8732 16.0519C27.8324 16.3387 27.8122 16.6281 27.8129 16.9177V33.368C27.1923 34.0212 26.6784 34.7693 26.2904 35.5844C25.999 36.1902 25.7832 36.83 25.6481 37.4892C25.518 38.0893 25.4526 38.7018 25.4531 39.316C25.4523 40.9965 25.9375 42.6409 26.8494 44.0487C27.7613 45.4564 29.0605 46.5666 30.5885 47.2439C31.6837 47.7329 32.8685 47.9856 34.0666 47.9856C35.2647 47.9856 36.4495 47.7329 37.5446 47.2439C39.0738 46.5675 40.3742 45.4576 41.2871 44.0498C42.2001 42.642 42.6861 40.9972 42.6858 39.316C42.692 37.101 41.8464 34.9694 40.326 33.368V16.9177ZM34.0666 46.1847C32.2589 46.1824 30.5259 45.4586 29.2477 44.1721C27.9695 42.8855 27.2503 41.1412 27.2481 39.3218C27.2481 39.2525 27.2481 39.1804 27.2481 39.1111C27.3066 37.3516 28.038 35.6828 29.2896 34.4531L29.3441 34.4011L29.6308 34.1328V16.9177C29.6603 15.7461 30.1435 14.6324 30.9772 13.8142C31.811 12.996 32.9294 12.5381 34.0938 12.5381C35.2583 12.5381 36.3766 12.996 37.2104 13.8142C38.0442 14.6324 38.5273 15.7461 38.5568 16.9177V34.1328L38.8436 34.4011C39.5053 35.0374 40.0316 35.8025 40.3905 36.6499C40.7493 37.4973 40.9332 38.4093 40.931 39.3304C40.9287 40.2345 40.7492 41.1293 40.4028 41.9634C40.0564 42.7976 39.5498 43.5547 38.9121 44.1915C38.2744 44.8282 37.5182 45.3321 36.6867 45.6741C35.8552 46.0161 34.9648 46.1896 34.0666 46.1847Z" fill="white"/>
<path d="M40.4756 27.3882H43.0992C43.3372 27.3882 43.5655 27.293 43.7338 27.1236C43.9021 26.9542 43.9967 26.7244 43.9967 26.4849C43.9967 26.2453 43.9021 26.0155 43.7338 25.8461C43.5655 25.6767 43.3372 25.5815 43.0992 25.5815H40.4756C40.2376 25.5815 40.0093 25.6767 39.841 25.8461C39.6727 26.0155 39.5781 26.2453 39.5781 26.4849C39.5781 26.7244 39.6727 26.9542 39.841 27.1236C40.0093 27.293 40.2376 27.3882 40.4756 27.3882Z" fill="white"/>
<path d="M40.4756 23.3853H43.0992C43.3372 23.3853 43.5655 23.2901 43.7338 23.1207C43.9021 22.9513 43.9967 22.7215 43.9967 22.4819C43.9967 22.2424 43.9021 22.0126 43.7338 21.8432C43.5655 21.6738 43.3372 21.5786 43.0992 21.5786H40.4756C40.2376 21.5786 40.0093 21.6738 39.841 21.8432C39.6727 22.0126 39.5781 22.2424 39.5781 22.4819C39.5781 22.7215 39.6727 22.9513 39.841 23.1207C40.0093 23.2901 40.2376 23.3853 40.4756 23.3853Z" fill="white"/>
<path d="M39.5781 18.4791C39.5789 18.7182 39.6738 18.9472 39.842 19.116C40.0102 19.2848 40.2381 19.3796 40.4756 19.3796H43.0992C43.3367 19.3796 43.5646 19.2848 43.7328 19.116C43.901 18.9472 43.9959 18.7182 43.9967 18.4791C43.9967 18.2395 43.9021 18.0098 43.7338 17.8404C43.5655 17.671 43.3372 17.5758 43.0992 17.5758H40.4727C40.2352 17.5766 40.0077 17.6721 39.84 17.8414C39.6723 18.0107 39.5781 18.24 39.5781 18.4791Z" fill="white"/>
<path d="M35.5093 36.1443V30.9351C35.5093 30.5524 35.3583 30.1853 35.0894 29.9147C34.8205 29.6441 34.4559 29.4921 34.0756 29.4921C33.6954 29.4921 33.3308 29.6441 33.0619 29.9147C32.793 30.1853 32.642 30.5524 32.642 30.9351V36.1472C32.3179 36.2938 32.0173 36.4884 31.7502 36.7244C31.5899 36.8723 31.4422 37.0335 31.3087 37.2063C30.8731 37.7839 30.6266 38.4835 30.6034 39.2082C30.5801 39.933 30.7812 40.6471 31.1789 41.2518C31.5765 41.8564 32.151 42.3218 32.8229 42.5834C33.4949 42.845 34.2309 42.89 34.9294 42.7121C35.6278 42.5342 36.254 42.1422 36.7214 41.5904C37.1888 41.0386 37.4742 40.3542 37.5382 39.6319C37.6022 38.9097 37.4416 38.1852 37.0787 37.5589C36.7157 36.9325 36.1683 36.4352 35.5122 36.1356L35.5093 36.1443Z" fill="white"/>
<path d="M24.3639 37.2179C24.4915 36.5887 24.6837 35.9745 24.9373 35.3853L22.4944 32.9091V27.368L26.5086 29.6941V27.1833L23.5868 25.4892L26.5086 23.7922V21.2785L22.4944 23.6075V18.075L26.9989 13.5556C27.2012 13.352 27.3149 13.0758 27.3149 12.7879C27.3149 12.4999 27.2012 12.2238 26.9989 12.0202C26.7966 11.8166 26.5223 11.7022 26.2362 11.7022C25.9501 11.7022 25.6758 11.8166 25.4735 12.0202L22.4944 15.0159V11.0851C22.4944 10.9426 22.4665 10.8015 22.4123 10.6699C22.3581 10.5382 22.2787 10.4186 22.1786 10.3178C22.0785 10.2171 21.9596 10.1371 21.8288 10.0826C21.698 10.0281 21.5578 10 21.4162 10C21.2747 10 21.1345 10.0281 21.0037 10.0826C20.8729 10.1371 20.754 10.2171 20.6539 10.3178C20.5538 10.4186 20.4744 10.5382 20.4202 10.6699C20.366 10.8015 20.3381 10.9426 20.3381 11.0851V15.0159L17.3733 12.0202C17.2732 11.9194 17.1542 11.8394 17.0234 11.7849C16.8925 11.7303 16.7522 11.7022 16.6106 11.7022C16.469 11.7022 16.3287 11.7303 16.1978 11.7849C16.067 11.8394 15.9481 11.9194 15.8479 12.0202C15.7477 12.121 15.6683 12.2407 15.6141 12.3724C15.5599 12.5041 15.532 12.6453 15.532 12.7879C15.532 12.9304 15.5599 13.0716 15.6141 13.2033C15.6683 13.3351 15.7477 13.4547 15.8479 13.5556L20.3381 18.075V23.6162L15.5755 20.8485L13.9297 14.6696C13.8536 14.3913 13.6709 14.1549 13.4216 14.0123C13.1724 13.8697 12.8771 13.8325 12.6006 13.9091C12.3242 13.9856 12.0893 14.1696 11.9476 14.4204C11.8059 14.6713 11.7691 14.9685 11.8451 15.2468L12.929 19.3247L9.55698 17.3651C9.43422 17.2938 9.29873 17.2476 9.15823 17.2291C9.01773 17.2105 8.87498 17.22 8.73812 17.257C8.60127 17.294 8.47299 17.3577 8.36061 17.4446C8.24823 17.5315 8.15396 17.6398 8.08317 17.7633C8.01238 17.8869 7.96646 18.0233 7.94803 18.1647C7.92961 18.3061 7.93904 18.4498 7.97578 18.5875C8.01252 18.7253 8.07586 18.8544 8.16218 18.9675C8.2485 19.0806 8.35611 19.1755 8.47886 19.2468L11.8508 21.2063L7.78783 22.2828C7.65096 22.3207 7.52284 22.3854 7.4108 22.4731C7.29876 22.5609 7.20498 22.6699 7.13482 22.7942C7.06466 22.9184 7.0195 23.0553 7.0019 23.1971C6.98431 23.3388 6.99464 23.4827 7.03229 23.6205C7.06995 23.7583 7.13419 23.8872 7.22136 24C7.30853 24.1128 7.41691 24.2071 7.54032 24.2778C7.78956 24.4204 8.08487 24.4575 8.3613 24.381L14.4945 22.7273L19.2571 25.4978L14.4916 28.2626L8.3613 26.6089C8.08449 26.5324 7.78881 26.5697 7.53931 26.7126C7.2898 26.8554 7.10691 27.0922 7.03086 27.3709C6.95481 27.6495 6.99184 27.9471 7.1338 28.1982C7.27576 28.4493 7.51103 28.6334 7.78783 28.71L11.8394 29.8009L8.47886 31.7547C8.23095 31.8986 8.04999 32.1357 7.97578 32.4139C7.90157 32.6921 7.9402 32.9886 8.08317 33.2381C8.22614 33.4876 8.46173 33.6698 8.73812 33.7445C9.01451 33.8191 9.30906 33.7803 9.55698 33.6364L12.929 31.6768L11.8451 35.7547C11.8074 35.8925 11.7971 36.0363 11.8147 36.1781C11.8323 36.3199 11.8775 36.4568 11.9476 36.581C12.0178 36.7052 12.1116 36.8143 12.2236 36.9021C12.3357 36.9898 12.4638 37.0545 12.6006 37.0924C12.7375 37.1303 12.8805 37.1406 13.0213 37.1229C13.1622 37.1052 13.2982 37.0598 13.4216 36.9892C13.545 36.9185 13.6534 36.8242 13.7406 36.7114C13.8278 36.5986 13.892 36.4697 13.9297 36.3319L15.5726 30.1558L20.3381 27.3853V32.9091L15.8479 37.4372C15.656 37.6428 15.5512 37.9156 15.5557 38.1977C15.5602 38.4797 15.6737 38.7489 15.8721 38.9482C16.0704 39.1475 16.3381 39.2612 16.6184 39.2652C16.8986 39.2692 17.1694 39.1632 17.3733 38.9697L20.3381 35.9856V39.9048C20.3381 40.1926 20.4517 40.4686 20.6539 40.6721C20.8561 40.8756 21.1303 40.9899 21.4162 40.9899C21.7022 40.9899 21.9764 40.8756 22.1786 40.6721C22.3808 40.4686 22.4944 40.1926 22.4944 39.9048V35.9913L24.2606 37.7662C24.2893 37.5815 24.3237 37.3997 24.3639 37.2179Z" fill="white"/>
</g>
<defs>
<clipPath id="clip0_6612_41204">
<rect width="37" height="38" fill="white" transform="translate(7 10)"/>
</clipPath>
</defs>
</svg>
